X:1
T:Robin Adair, 10.10.12.10
T:Robin Adair, 10.10.12.10
T:Gaelic Melody
T:Public Domain Courtesy of the Cyber Hymnal™
C:Gaelic Melody
Z:Public Domain
Z:Courtesy of the Cyber Hymnal™
%%score ( 1 2 ) ( 3 4 )
L:1/8
Q:1/4=110
M:3/4
K:G
V:1 treble 
V:2 treble 
V:3 bass 
V:4 bass 
V:1
 [B,D]2 [CE]2 [DF]2 | [DG]3 [DA] [DB]2 | D2 E2 [CF]2 | [B,G]6 | [B,D]2 [CE]2 [DF]2 | %5
 [DG]3 [DA] [DB]2 | D2 E2 [CF]2 | [B,G]6 | [DB]2 [DB]2 [DB]2 | [Dd]3 D D2 | [DB]2 [DB]2 [DFA]2 | %11
 [B,G]3 [CE] [B,D]2 | [Dd]2 ([Ec][DB]) ([CA][B,G]) | [DG]3 [DA] [DB]2 | [G,D]2 [G,E]2 [CF]2 | %15
 [B,G]6 |] %16
V:2
 x6 | x6 | D2 E2 x2 | x6 | x6 | x6 | D2 E2 x2 | x6 | x6 | x3 D D2 | x6 | x6 | x6 | x6 | x6 | x6 |] %16
V:3
 [G,,G,]2 [C,G,]2 [C,A,]2 | [B,,G,]3 [A,,F,] [G,,G,]2 | [B,,G,]2 [C,G,]2 [D,F,]2 | [G,,G,]6 | %4
 [G,,G,]2 [C,G,]2 [C,A,]2 | [B,,G,]3 [A,,F,] [G,,G,]2 | [B,,G,]2 [C,G,]2 [D,F,]2 | [G,,G,]6 | %8
 G,2 G,2 G,2 | [F,A,]3 [F,A,] [F,A,]2 | G,2 G,2 D,2 | [E,G,]3 [C,G,] [G,,G,]2 | %12
 [G,,B,]2 [G,,G,]2 [G,,D,]2 | [B,,G,]3 [D,F,] [B,,G,]2 | [G,B,]2 [A,,G,]2 [D,F,]2 | [G,,G,]6 |] %16
V:4
 x6 | x6 | x6 | x6 | x6 | x6 | x6 | x6 | G,2 G,2 G,2 | x6 | G,2 G,2 D,2 | x6 | x6 | x6 | x6 | x6 |] %16

